svgs/thin/road-barrier.svg

<svg xmlns="http://www.w3.org/2000/svg" viewBox="0 0 640 512"><!--! Font Awesome Pro 7.1.0 by @fontawesome - https://fontawesome.com License - https://fontawesome.com/license (Commercial License) Copyright 2025 Fonticons, Inc. --><path fill="currentColor" d="M8 32c4.4 0 8 3.6 8 8l0 40 608 0 0-40c0-4.4 3.6-8 8-8s8 3.6 8 8l0 432c0 4.4-3.6 8-8 8s-8-3.6-8-8l0-168-608 0 0 168c0 4.4-3.6 8-8 8s-8-3.6-8-8L0 40c0-4.4 3.6-8 8-8zM624 288l0-192-7.1 0-1.8 3.6-94.2 188.4 103.1 0zM16 288l7.1 0 1.8-3.6 94.2-188.4-103.1 0 0 192zM599.1 96l-142.1 0-1.8 3.6-94.2 188.4 142.1 0 1.8-3.6 94.2-188.4zM136.9 96l-96 192 142.1 0 1.8-3.6 94.2-188.4-142.1 0zm158.2 3.6l-94.2 188.4 142.1 0 1.8-3.6 94.2-188.4-142.1 0-1.8 3.6z"/></svg>

<svg xmlns="http://www.w3.org/2000/svg" viewBox="0 0 640 512"><!--! Font Awesome Pro 6.7.2 by @fontawesome - https://fontawesome.com License - https://fontawesome.com/license (Commercial License) Copyright 2024 Fonticons, Inc. --><path d="M8 32c4.4 0 8 3.6 8 8l0 40 608 0 0-40c0-4.4 3.6-8 8-8s8 3.6 8 8l0 40 0 16 0 192 0 16 0 168c0 4.4-3.6 8-8 8s-8-3.6-8-8l0-168L16 304l0 168c0 4.4-3.6 8-8 8s-8-3.6-8-8L0 304l0-16L0 96 0 80 0 40c0-4.4 3.6-8 8-8zM624 288l0-192-7.1 0-1.8 3.6L520.9 288 624 288zM16 288l7.1 0 1.8-3.6L119.1 96 16 96l0 192zM599.1 96L456.9 96l-1.8 3.6L360.9 288l142.1 0 1.8-3.6L599.1 96zM136.9 96l-1.8 3.6L40.9 288l142.1 0 1.8-3.6L279.1 96 136.9 96zm158.2 3.6L200.9 288l142.1 0 1.8-3.6L439.1 96 296.9 96l-1.8 3.6z"/></svg>
